X: 18288
T: Humours Of Sweetwater
R: jig
M: 6/8
K: Dmixolydian
|:AB|c2A cde|dBA GAB|c2A cde|dBd gdB|
c2A cde|dBA G2B|AdB AGE|1 GED D:|2 GED D2||
|:f|g2a bge|fga d2B|c2d edc|dBd gdB|
g2a bge|fga d2B|AdB AGE|1 GED D2:|2 GED D3||

